tools/download-figma-icons/icons/outlined-medium/help.svg

<svg width="24" height="24" viewBox="0 0 24 24" fill="none" xmlns="http://www.w3.org/2000/svg">
<path fill-rule="evenodd" clip-rule="evenodd" d="M12 1.5C6.21 1.5 1.5 6.21 1.5 12C1.5 17.79 6.21 22.5 12 22.5C17.79 22.5 22.5 17.79 22.5 12C22.5 6.21 17.79 1.5 12 1.5ZM12 24C5.3835 24 0 18.6165 0 12C0 5.3835 5.3835 0 12 0C18.6165 0 24 5.3835 24 12C24 18.6165 18.6165 24 12 24ZM13.0371 16.9234C13.0446 17.3059 12.8421 17.6734 12.5046 17.8684C12.1671 18.0641 11.7546 18.0559 11.4246 17.8534C11.0871 17.6434 10.8996 17.2759 10.9221 16.8859C10.9596 16.3234 11.4321 15.8809 11.9946 15.8959C12.5646 15.9034 13.0221 16.3534 13.0371 16.9234ZM14.9346 11.4182C15.4446 10.9607 15.7521 10.3307 15.8196 9.64822C15.8796 9.10147 15.8121 8.53897 15.6096 8.02072C15.2796 7.19572 14.5971 6.55822 13.7571 6.28897C12.5721 5.85322 11.2679 5.92072 10.1271 6.46822C9.42961 6.79072 8.86711 7.35322 8.54461 8.05072C8.29711 8.61322 8.16961 9.22147 8.16961 9.82822C8.16211 9.90322 8.20786 9.90322 8.25961 9.90322H10.0371C10.1271 9.91147 10.1721 9.88147 10.1721 9.79072C10.1871 9.63322 10.2104 9.48322 10.2471 9.33322C10.3371 8.88322 10.6296 8.50822 11.0421 8.30572C11.6429 8.02072 12.3396 7.99822 12.9621 8.23072C13.6071 8.47147 13.8621 8.96572 13.7271 9.64072C13.6521 10.039 13.4579 10.4057 13.1721 10.6915C12.8354 11.0432 12.4821 11.3732 12.1221 11.7032C11.7104 12.064 11.4096 12.5365 11.2521 13.069C11.1404 13.5707 11.0804 14.0882 11.0946 14.6132C11.0871 14.6657 11.1171 14.6807 11.1696 14.6807H12.7596C12.8196 14.6807 12.8354 14.6507 12.8354 14.599C12.8378 14.5611 12.8412 14.5234 12.8447 14.4857C12.8509 14.4182 12.8571 14.3509 12.8571 14.284C12.8654 13.9832 12.9171 13.6832 13.0154 13.3982C13.1721 13.039 13.4196 12.724 13.7346 12.4907C13.812 12.4235 13.8896 12.3565 13.9673 12.2896C14.2966 12.0055 14.6257 11.7217 14.9346 11.4182Z" fill="black"/>
</svg>

<svg width="24" height="24" viewBox="0 0 24 24" fill="none" xmlns="http://www.w3.org/2000/svg"><path fill-rule="evenodd" clip-rule="evenodd" d="M12 1.5C6.21 1.5 1.5 6.21 1.5 12S6.21 22.5 12 22.5 22.5 17.79 22.5 12 17.79 1.5 12 1.5ZM12 24C5.383 24 0 18.616 0 12 0 5.383 5.383 0 12 0c6.616 0 12 5.383 12 12 0 6.616-5.384 12-12 12Zm1.037-7.077c.008.383-.195.75-.532.945a1.05 1.05 0 0 1-1.08-.015 1.056 1.056 0 0 1 .57-1.958c.57.008 1.027.458 1.042 1.028Zm1.898-5.505c.51-.457.817-1.087.885-1.77a3.45 3.45 0 0 0-.21-1.627 2.983 2.983 0 0 0-1.853-1.732 4.658 4.658 0 0 0-3.63.18A3.248 3.248 0 0 0 8.545 8.05a4.424 4.424 0 0 0-.375 1.777c-.008.075.038.075.09.075h1.777c.09.008.135-.022.135-.112a3.17 3.17 0 0 1 .075-.458c.09-.45.383-.825.795-1.027a2.473 2.473 0 0 1 1.92-.075c.645.24.9.735.765 1.41-.075.398-.27.765-.555 1.05-.337.352-.69.682-1.05 1.012a2.914 2.914 0 0 0-.87 1.366 6.317 6.317 0 0 0-.157 1.544c-.008.053.022.068.075.068h1.59c.06 0 .075-.03.075-.082l.01-.113c.006-.068.012-.135.012-.202.008-.3.06-.6.158-.886a2.25 2.25 0 0 1 .72-.907l.232-.201c.33-.284.659-.568.968-.872Z" fill="currentColor"/></svg>
